src/status/24/battery-low-charging.svg

<svg width="24" height="24" enable-background="new" version="1.1" xmlns="http://www.w3.org/2000/svg">
 <title>Paper Symbolic Icon Theme</title>
 <g transform="translate(2,4)" fill="#363636">
  <g fill-rule="evenodd">
   <path d="m2.5312 5c-0.29412 0-0.53125 0.24253-0.53125 0.54492v4.9102c0 0.30239 0.23713 0.54492 0.53125 0.54492h3.9375c0.29412 0 0.53125-0.24253 0.53125-0.54492v-0.45508h-1.5c-0.79859-1.712e-4 -1.2749-0.89013-0.83203-1.5547l2.1836-3.2754c-0.096507-0.10352-0.23169-0.16992-0.38281-0.16992h-3.9375z" style="paint-order:stroke fill markers"/>
   <path d="m2 3c-1.108 0-2 0.892-2 2v6c0 1.108 0.892 2 2 2h13c1.108 0 2-0.892 2-2v-6c0-1.108-0.892-2-2-2zm0 1h13c0.554 0 1 0.446 1 1v6c0 0.554-0.446 1-1 1h-13c-0.554 0-1-0.446-1-1v-6c0-0.554 0.446-1 1-1z" enable-background="new" style="paint-order:stroke fill markers"/>
   <path d="m18 6v4a2 2 0 0 0 2-2 2 2 0 0 0-2-2z" enable-background="new" style="paint-order:stroke fill markers"/>
  </g>
  <path d="m8.834 4-3.334 5h3l-0.75 3h0.41602l3.334-5h-3l0.75-3z" enable-background="new"/>
 </g>
</svg>

<svg xmlns="http://www.w3.org/2000/svg" width="24" height="24">
    <g fill="#050505" opacity=".7">
        <g fill-rule="evenodd">
            <path d="M2.531 5A.537.537 0 0 0 2 5.545v4.91c0 .303.237.545.531.545H6.47a.537.537 0 0 0 .53-.545V10H5.5a1 1 0 0 1-.832-1.555L6.852 5.17A.523.523 0 0 0 6.469 5H2.53z" style="paint-order:stroke fill markers" transform="translate(2 4)"/>
            <path d="M2 3C.892 3 0 3.892 0 5v6c0 1.108.892 2 2 2h13c1.108 0 2-.892 2-2V5c0-1.108-.892-2-2-2zm0 1h13c.554 0 1 .446 1 1v6c0 .554-.446 1-1 1H2c-.554 0-1-.446-1-1V5c0-.554.446-1 1-1zM18 6v4a2 2 0 0 0 2-2 2 2 0 0 0-2-2z" style="paint-order:stroke fill markers" transform="translate(2 4)"/>
        </g>
        <path d="M10.834 8 7.5 13h3l-.75 3h.416l3.334-5h-3l.75-3z"/>
    </g>
</svg>
